X:671
T:Reel 671
M:4/4
K:Dmaj
L:1/8
D>F (3FEF A2E (3FGA |BcdB AF (3DEF |E>F (3EEE e>E (3EFE |Beed cde2|f>d (3dcd f>d (3dcd |A>d (3dcd f2cd|efgf eded|cABc defg| (3agf gf df (3cBA e2| (3Bcd AF F2 (3FGA |Bdef edcd|edcd  (3cBA B>A (3GFE |AGFd d2cd| (3Bcd Ad fdfa|gfed cdec|BABd dcdB|
